src/lib/packages/icons/src/assets/filled/face-smirking.svg

<svg xmlns="http://www.w3.org/2000/svg" width="24" height="24" fill="none"><path fill="currentColor" d="M12 2C6.48 2 2 6.48 2 12s4.48 10 10 10 10-4.48 10-10S17.52 2 12 2Zm-5.75 8c0-.41.34-.75.75-.75h2.5c.72 0 1.25.74 1.25 1.75s-.53 1.75-1.25 1.75-1.25-.74-1.25-1.75c0-.09 0-.17.02-.25H7c-.41 0-.75-.34-.75-.75Zm10.27 5.52-.57.57c-.42.42-.99.66-1.59.66H8.98c-.41 0-.75-.34-.75-.75s.34-.75.75-.75h5.38c.2 0 .39-.08.53-.22l.57-.57c.29-.29.77-.29 1.06 0 .29.29.29.77 0 1.06Zm-.02-2.77c-.72 0-1.25-.74-1.25-1.75 0-.09 0-.17.02-.25H14c-.41 0-.75-.34-.75-.75s.34-.75.75-.75h2.5c.72 0 1.25.74 1.25 1.75s-.53 1.75-1.25 1.75Z"/></svg>

<svg width="24" height="24" viewBox="0 0 24 24" fill="none" xmlns="http://www.w3.org/2000/svg">
<path d="M12 2C6.48 2 2 6.48 2 12C2 17.52 6.48 22 12 22C17.52 22 22 17.52 22 12C22 6.48 17.52 2 12 2ZM6.25 10C6.25 9.59 6.59 9.25 7 9.25H9.5C10.22 9.25 10.75 9.99 10.75 11C10.75 12.01 10.22 12.75 9.5 12.75C8.78 12.75 8.25 12.01 8.25 11C8.25 10.91 8.25002 10.83 8.27002 10.75H7C6.59 10.75 6.25 10.41 6.25 10ZM16.52 15.52L15.95 16.09C15.53 16.51 14.96 16.75 14.36 16.75H8.97998C8.56998 16.75 8.22998 16.41 8.22998 16C8.22998 15.59 8.56998 15.25 8.97998 15.25H14.36C14.56 15.25 14.75 15.17 14.89 15.03L15.46 14.46C15.75 14.17 16.23 14.17 16.52 14.46C16.81 14.75 16.81 15.23 16.52 15.52ZM16.5 12.75C15.78 12.75 15.25 12.01 15.25 11C15.25 10.91 15.25 10.83 15.27 10.75H14C13.59 10.75 13.25 10.41 13.25 10C13.25 9.59 13.59 9.25 14 9.25H16.5C17.22 9.25 17.75 9.99 17.75 11C17.75 12.01 17.22 12.75 16.5 12.75Z" fill="currentColor"/>
</svg>
